X: 1
T:A and D
% Nottingham Music Database
S:BF6a Marleen, via EF
M:6/8
K:D
P:A
|:t|d/2G/2|"G"BGE "Dm"A2G|"G"GBd BGB|cdB f2B|
"D"c2d A2A|"G"G2A "D"A2A|"D"FAB AFA|"E7"G3 B2A|\
"A"ccB "A"ABA|
"D"ABd ddA|"D"f2f "A7"efe|"Am"cBc "E"BGF|"A"AAA "A"A D|"G"Bed'
|:"G7"ddc BcB|"Gm"A2e g2e|"D"ddf ABc|"Bm"dfg g2::
f|"A"efg "Bm"gfe|"Am"geA cBc|"D"dgg fed|
"A"eec "Bm"B3|"D"Acf "A7"efe|"A"GFE "D7"B2A|"Am"c2c "A#m"B2G|"D"F3 -G2:|


